X: 8
T: The Pigeon On The Gate
R: reel
M: 4/4
L: 1/8
K: Gdor
c|:dG (3GGG {e}dcAc|d2de dcAB|cF (3FFF cFAB|c2cf dcBc|
dG (3GGG {e}dcAc|d2de dcAG|FAcf afga|fdcA GABc:|
dg (3ggg fagf|dgga bgaf|dcde fgfd|cAf2 fgaf|
dg (3ggg fagf|dgga bgaf|dcde fgfd|1cAFA GABc:|2cAFA G2G|]


Tune 517	Setting 13452

